modules/themify-icons/icons/cloud.svg

<?xml version="1.0" encoding="utf-8"?>
<!-- Generated by IcoMoon.io -->
<!DOCTYPE svg PUBLIC "-//W3C//DTD SVG 1.1//EN" "http://www.w3.org/Graphics/SVG/1.1/DTD/svg11.dtd">
<svg version="1.1" xmlns="http://www.w3.org/2000/svg" xmlns:xlink="http://www.w3.org/1999/xlink" width="17" height="17" viewBox="0 0 17 17">
<g>
</g>
	<path d="M12.75 4.5c-0.578 0-1.146 0.123-1.691 0.367-0.889-0.873-2.075-1.367-3.309-1.367-1.966 0-3.684 1.19-4.397 3.002-1.803-0.074-3.353 1.421-3.353 3.248 0 1.792 1.458 3.25 3.25 3.25h9.5c2.343 0 4.25-1.907 4.25-4.25s-1.907-4.25-4.25-4.25zM12.75 12h-9.5c-1.241 0-2.25-1.009-2.25-2.25s1.009-2.25 2.25-2.25c0.125 0 0.244 0.019 0.363 0.038l0.435 0.072 0.126-0.422c0.478-1.608 1.915-2.688 3.576-2.688 1.073 0 2.102 0.477 2.821 1.307l0.265 0.306 0.354-0.195c0.503-0.277 1.027-0.418 1.56-0.418 1.792 0 3.25 1.458 3.25 3.25s-1.458 3.25-3.25 3.25z" fill="#000000" />
</svg>

<svg xmlns="http://www.w3.org/2000/svg" width="17" height="17" viewBox="0 0 17 17"><path d="M12.75 4.5c-.578 0-1.146.123-1.691.367A4.728 4.728 0 0 0 7.75 3.5a4.702 4.702 0 0 0-4.397 3.002C1.55 6.428 0 7.923 0 9.75A3.254 3.254 0 0 0 3.25 13h9.5C15.093 13 17 11.093 17 8.75S15.093 4.5 12.75 4.5zm0 7.5h-9.5C2.009 12 1 10.991 1 9.75S2.009 7.5 3.25 7.5c.125 0 .244.019.363.038l.435.072.126-.422C4.652 5.58 6.089 4.5 7.75 4.5c1.073 0 2.102.477 2.821 1.307l.265.306.354-.195a3.208 3.208 0 0 1 1.56-.418C14.542 5.5 16 6.958 16 8.75S14.542 12 12.75 12z"/></svg>
